icons/text-wrap.svg

<svg viewBox="0 0 24 24" fill="currentColor" xmlns="http://www.w3.org/2000/svg"><path d="M15 18H16.5C17.8807 18 19 16.8807 19 15.5C19 14.1193 17.8807 13 16.5 13H3V11H16.5C18.9853 11 21 13.0147 21 15.5C21 17.9853 18.9853 20 16.5 20H15V22L11 19L15 16V18ZM3 4H21V6H3V4ZM9 18V20H3V18H9Z"/></svg>

<svg xmlns="http://www.w3.org/2000/svg" viewBox="0 0 24 24">
    <g>
        <path fill="none" d="M0 0h24v24H0z"/>
        <path d="M15 18h1.5a2.5 2.5 0 1 0 0-5H3v-2h13.5a4.5 4.5 0 1 1 0 9H15v2l-4-3 4-3v2zM3 4h18v2H3V4zm6 14v2H3v-2h6z"/>
    </g>
</svg>
